!!!SOCIAL_FUNCTION:	songs for success in hunting
!!!PDT:	1956
!!!OTL: No_209_It_Moves_about_as_it_Feeds.krn
!!!LANG: Non-Tone
!!!LING_GROUP: Muskogean
!!!REG: Florida
**kern
*staff1
=1-
*clefF4
*k[f#c#]
*M2/4
16A\LK
8.A\J
4A\
=2
16F#\LK
8.F#\J
4D\
=3
16G\LK
8.F#\J
(8G\L
8F#\J)
=4
16D\LK
8.D\J
4AA/
=5
12BB/L
12AA/
12AA/J
4D\
=6
8.D\L
16D\Jk
4D\
=7
8G\L
8F#\J
8G\L
8F#\J
=8
16D\LK
8.D\J
4AA/
=9
16BB/LK
8.AA/J
4D\
=10
16D\LK
8.D\J
8D\
8r
=11!|:
4A\
4F#\
=12
8A\L
8F#\J
8F#\
8r
=13||
*M3/4
8A\L
8F#\J
2F#\
=14||
*M2/4
16D\LK
8.D\J
4AA/
=15
12BB/L
12AA/
12AA/J
4D\
=16
16D\LK
8.D\J
4D\
=17
8G\L
8F#\J
8G\L
8F#\J
=18
16D\LK
8.D\J
4AA/
=19
12BB/L
12AA/
12AA/J
4D\
=20
16D\LK
8.D\J
8D\
8r
==:|!
*-
